X: 0822
M: 4/4
L: 1/8
K: D
|:\
d2dc dA FA | B2BA B2d2 |\
f2fd g2ge | f2fd cecA |\
f2fd g2ge | afed B2d2 ||
f2fd g2ge | f2fd cecA |\
fa fd gb ge | afed B2d2 |]

